X:1
T:Title
%%score { ( 1 3 ) | 2 }
L:1/8
M:4/4
K:Ab
V:1 treble nm="Grand Piano"
V:3 treble 
V:2 bass 
V:1
 z4 z2[Q:1/4=100] [CE]2 | [CE]2 [CA]2 [Ec]3 [CA] | BA[EG][DF] [CE]3 E | F2 A2 G2 A2 | %4
[M:3/4] B4 z2 |[M:1/4] E2 |[M:4/4] [CE]2 [CA]2 [Ec]3 [CA] | BA[EG][DF] [CE]3 [CE] | F2 A2 G2 E2 | %9
[M:3/4] [CA]4 z2 |[M:1/4] EA |[M:4/4] c6 z2 | B6 z2 | B6 z2 |[M:3/4] A6 |[M:1/4] E2 | %16
[M:4/4] [CE]2 [CA]2 [Ec]3 [CA] | BA[EG][DF] [CE]3 [CE] | F2 A2 G2 E2 |[M:7/4] [CA]4 z2 z2 z2 z4 |] %20
V:2
 z4 z2 [A,,A,]2 | [A,,A,]2 [A,,A,]2 [A,,A,]3 [A,,E,] | [D,F,D]2 [D,A,]2 [A,,A,]3 [C,A,] | %3
 [D,A,D]2 [D,F,D]2 [E,B,]2 [E,A,C]2 |[M:3/4] [E,G,E]4 z2 |[M:1/4] [E,G,D]2 | %6
[M:4/4] [A,,A,]2 [A,,A,]2 [A,,A,]3 [A,,E,] | [D,F,D]2 [D,A,]2 [A,,A,]3 [A,,A,] | %8
 [D,A,D]2 [D,F,D]2 [E,D]2 [E,G,D]2 |[M:3/4] [A,,A,]4 z2 |[M:1/4] z2 | %11
[M:4/4] z2 [A,E][A,E] [A,E]2 z2 | z2 [E,D][E,D] [E,D]2 z2 | z2 [E,D][E,D] [E,D]2 z2 | %14
[M:3/4] z2 [A,C][A,C] [A,C]2 |[M:1/4] [E,G,D]2 |[M:4/4] [A,,A,]2 [A,,A,]2 [A,,A,]3 [A,,E,] | %17
 [D,F,D]2 [D,A,]2 [A,,A,]3 [A,,A,] | [D,A,D]2 [D,F,D]2 [E,D]2 [E,G,D]2 | %19
[M:7/4] [A,,A,]4 z2 z2 z2 z4 |] %20
V:3
 x8 | x8 | x8 | x8 |[M:3/4] x6 |[M:1/4] x2 |[M:4/4] x8 | x8 | x8 |[M:3/4] x6 |[M:1/4] x2 | %11
[M:4/4] z2 AA A2 cA | z2 GG G2 GA | z2 EE E2 cB |[M:3/4] z2 EE E2 |[M:1/4] x2 |[M:4/4] x8 | x8 | %18
 x8 |[M:7/4] x14 |] %20

